X:1
T:James Gibb editions
T:In te, Domine, speravi - Hassler
T:#
%%score [ 1 2 3 4 ]
L:1/8
Q:1/4=120
M:2/2
K:C
V:1 treble nm="Soprano" snm="S"
V:2 treble nm="Alto" snm="A"
V:3 treble-8 nm="Tenor" snm="T"
V:4 bass nm="Bass" snm="B"
V:1
"^Hans Leo Hassler\n(1564-1612)""^In te, Domine, speravi" z8 | z8 | z8 | z8 | z8 | G6 G2 | %6
w: |||||In te,|
 (A2 B2 c2 A2 | B4) B4 | c4 c4 | A8 | G8 | c8 | d8 | (e6 d2 | c4) A4 | d4 B4 | (c6 B2 | A2 Bc d4) | %18
w: Do\- * * *|* mi-|ne, spe-|ra-|vi;|non|con-|fun\- *|* dar|in ae-|ter\- *||
 G8 | z8 | z8 | G8 | A4 c4- | c2 c2 B4 | c4 c4 | A4 A4 | G8 | c8 | z8 | G6 G2 | (A2 B2 c2 A2 | %31
w: num.|||In|iu- sti\-|* ti- a|tu- a|li- be-|ra|me.||In te,|Do\- * * *|
 B4) B4 | c4 c4 | A8 | G8 | c8 | d8 | (e6 d2 | c4) A4 | d4 B4 | (c6 B2 | A2 Bc d4) | G8 | z8 | z8 | %45
w: * mi-|ne, spe-|ra-|vi~;|non|con-|fun\- *|* dar|in ae-|ter\- *||num.|||
[Q:1/4=116] G8 |[Q:1/4=112] A4[Q:1/4=109] c4- |[Q:1/4=106] c4[Q:1/4=103] B4 | %48
w: In|iu- sti\-|* ti-|
[Q:1/4=102] !fermata!c8 |] %49
w: a.|
V:2
 z8 | z8 | z8 | C6 C2 | (D2 E2 F2 D2 | E4) E4 | F4 F4 | D8 | C8 | F8 | G8 | (A6 G2 | F4) D4 | %13
w: |||In te,|Do\- * * *|* mi-|ne, spe-|ra-|vi;|non|con-|fun\- *|* dar|
 G4 E4 | (F6 E2 | D2 EF G4) | C8 | z8 | z8 | C8 | D4 F4- | F2 F2 E4 | F4 F4 | D4 D4 | C8 | F8 | %26
w: in ae-|ter\- *||num.|||In|iu- sti\-|* ti- a|tu- a|li- be-|ra|me.|
 z8 | C6 C2 | (D2 E2 F2 D2 | E4) E4 | F4 F4 | D8 | C8 | F8 | G8 | (A6 G2 | F4) D4 | G4 E4 | %38
w: |In te,|Do\- * * *|* mi-|ne, spe-|ra-|vi;|non|con-|fun\- *|* dar|in ae-|
 (F6 E2 | D2 EF G4) | C8 | z8 | z8 | C8 | D4 F4- | F2 F2 E4 | F4 F4 | D2 D2 D4 | !fermata!C8 |] %49
w: ter\- *||num.|||In|iu- sti\-|* ti- a|tu- a|li- be- ra|me.|
V:3
 z8 | z8 | G6 G2 | (A2 B2 c2 A2 | B4) B4 | c4 c4 | A8 | G8 | c8 | d8 | (e6 d2 | c4) A4 | d4 B4 | %13
w: ||In te,|Do\- * * *|* mi-|ne, spe-|ra-|vi;|non|con-|fun\- *|* dar|in ae-|
 (c6 B2 | A2 Bc d4) | G8 | z8 | z8 | G8 | A4 c4- | c2 c2 B4 | c4 c4 | A4 A4 | G8 | c8 | z8 | %26
w: ter\- *||num.|||In|iu- sti\-|* ti- a|tu- a|li- be-|ra|me.||
 G6 G2 | (A2 B2 c2 A2 | B4) B4 | c4 c4 | A8 | G8 | c8 | d8 | (e6 d2 | c4) A4 | d4 B4 | (c6 B2 | %38
w: In te,|Do- * * *|* mi-|ne, spe-|ra|vi;|non|con-|fun\- *|* dar|in ae-|ter\- *|
 A2 Bc d4) | G8 | z8 | z8 | G8 | A4 c4- | c2 c2 B4 | c4 c4 | A4 A4 | G8 | !fermata!c8 |] %49
w: |num.|||In|iu- sti\-|* ti- a|tu- a|li- be-|ra|me.|
V:4
 C,6 C,2 | (D,2 E,2 F,2 D,2 | E,4) E,4 | F,4 F,4 | D,8 | C,8 | F,8 | G,8 | (A,6 G,2 | F,4) D,4 | %10
w: In te,|Do\- * * *|* mi-|ne, spe-|ra-|vi;|non|con-|fun\- *|* dar|
 G,4 E,4 | (F,6 E,2 | D,2 E,F, G,4) | C,8 | z8 | z8 | C,8 | D,4 F,4- | F,2 F,2 E,4 | F,4 F,4 | %20
w: in ae-|ter\- *||num.|||In|iu- sti\-|* ti- a|tu- a|
 D,4 D,4 | C,8 | F,8 | z8 | C,6 C,2 | (D,2 E,2 F,2 D,2 | E,4) E,4 | F,4 F,4 | D,8 | C,8 | F,8 | %31
w: li- be-|ra|me.||In te,|Do\- * * *|* mi-|ne, spe-|ra-|vi;|non|
 G,8 | (A,6 G,2 | F,4) D,4 | G,4 E,4 | (F,6 E,2 | D,2 E,F, G,4) | C,8 | z8 | z8 | C,8 | D,4 F,4- | %42
w: con-|fun\- *|* dar|in ae-|ter\- *||num.|||In|iu- sti\-|
 F,2 F,2 E,4 | F,4 F,4 | D,4 D,4 | C,8 | F,8 | z8 | !fermata!C,8 |] %49
w: * ti- a|tu- a|li- be-|ra|me,||me.|

